icon/cg/path-outline.svg

<svg width="24" height="24" fill="none" xmlns="http://www.w3.org/2000/svg"><path fill-rule="evenodd" clip-rule="evenodd" d="M5 5h10v4h4v10H9v-4H5V5Zm2 2h6v2H9v4H7V7Zm4 10h6v-6h-2v4h-4v2Zm2-6h-2v2h2v-2Z" fill="currentColor"/></svg>

<svg viewBox="0 0 24 24" fill="none" xmlns="http://www.w3.org/2000/svg" height="1em" width="1em">
  <path fill-rule="evenodd" clip-rule="evenodd" d="M5 5H15V9H19V19H9V15H5V5ZM7 7H13V9H9V13H7V7ZM11 17H17V11H15V15H11V17ZM13 11H11V13H13V11Z" fill="currentColor"/>
</svg>
